X:642
T:Fasten the leg in her
R:Jig
O:Ireland
B:Krassen O'Neill's p.35
B:O'Neill's 860
S:O'Neill's 860
Z:Transcription:Dan G. Petersen, minor arr.,chords:Mike Long
M:6/8
L:1/8
K:G
d/c/|\
"G"~B2B BAB|GBd gdB|"D"A2A AGA|"C"Bee "D"dBA|\
"G"~B2B BAB|GBd gfg|\
"C"efg "A"eag|"D"fdd d2:|
|:e/f/|\
"G"gag "D"fgf|"C"ede "D"fdB|"D"ABA AGA|\
"C"Bee "D"def|\
"G"gag "D"fgf|"C"ede "D"fdd|"D"def "A"eag|"D"fdd d2:|
